X: 279
T: Grasshopper Sitting on a Sweet Potato Vine
B: canberra pickers and fiddlers
B: tunes
M:C|
L:1/8
R: reel
Q: 1/4=100
K:D
V:1 
dB|ABAG FGAd|fafe d2d2| BdBA GABc|dedB A2AB|
ABAG FGAd|fafe d2d2| ccee BAcA|d2ff d2:|
df|eecc AAff|aafe d2d2|BdBA GABc|dedB A2A2|
eec2 eeff|aafe d2d2|ccee BAcA|1d2ff d2:|2d4 d2||
% abcbook-tune_id 63da5934c00b046c63ebdefe
% abcbook-tune_composer_id 
% abcbook-link-0 https://www.youtube.com/watch?v=h_QRH6pvFM4
% abcbook-link-start-at-0 6
% abcbook-boost 0
% abcbook-difficulty 0
% abcbook-tags canberra pickers and fiddlers,old time tunes,© free
% abcbook-tablature 
% abcbook-transpose 
% abcbook-tuning ADAE
% abcbook-lastupdated 1694511544115
% abcbook-src-url https://tunebook.net/scrape/tunes.abc
% abcbook-soundfonts 
% abcbook-repeats 1
%%gchordfont "itim-music,Itim" 20

